!!!!SEGMENT: pl-kk--i-533--001_studzinski-piotr--nr-1-instorum-anime-in-mano-dei.krn
!!!cenid: 18xx:4470
!!!COM: Studziński, Piotr
!!!COM-rismID: pe50044409
!!!CDT: 1825/10/16-1869/04/20
!!!CNT: Polish
!!!OTL: Nr 1. Instorum anime in mano Dei
!!!PDT:
!!!AGN: Sacred
!!!YEC: Copyright 2022 Narodowy Instytut Fryderyka Chopina (https://polishscores.org)
!!!YEM: License CC-BY-4.0 (https://creativecommons.org/licenses/by/4.0)
!!!SMS-siglum: PL-Kk
!!!SMS-shelfmark: I.533
!!!SMS-variant: Soprano PL-Kk KK.I.533:1; Alto PL-Kk KK.I.533:5; Tenor PL-Kk KK.I.533:9; Basſo PL-Kk KK.I.533:13.
!!!SMS-altvar: Partytura PL-Kk KK.I.533:18.
!!!SMS-shelfwork: 001 W
!!!NIFC-rismSourceID: 1001210519
!!!NIFC-rismChildID: 1001210523
!!!NIFC-islandoraID: pl-kk:16805
!!!URL-pdf-islandora: https://repozytorium.nifc.pl/islandora/object/pl-kk%3A16805/datastream/PDF/view
!!!URL-scan: https://polish.musicsources.pl/pl/lokalizacje/galeria/rekopisy/7160/1 @EN{Scan on Polish Music Sources Website} @PL{Skany w portalu Dziedzictwo Muzyki Polskiej w otwartym dostępie}
!!!IIIF:
!!!ONB-nifc:
!!!OMD: Andantino quasi Allegretto
!!!AIN: 1 alto 1 bass 1 soprn 1 tenor
!!!key: E-
**kern	**text	**dynam	**kern	**text	**dynam	**kern	**text	**dynam	**kern	**text	**dynam
*part4	*part4	*part4	*part3	*part3	*part3	*part2	*part2	*part2	*part1	*part1	*part1
*staff4	*staff4	*	*staff3	*staff3	*	*staff2	*staff2	*	*staff1	*staff1	*
*I"Baſso	*	*	*I"Tenor	*	*	*I"Alto	*	*	*I"Soprano	*	*
*I'B	*	*	*I'T	*	*	*I'A	*	*	*I'S	*	*
*Ibass	*	*	*Itenor	*	*	*Ialto	*	*	*Isoprn	*	*
*ICvox	*	*	*ICvox	*	*	*ICvox	*	*	*ICvox	*	*
*clefF4	*	*	*clefC4	*	*	*clefC3	*	*	*clefG2	*	*
*k[b-e-a-]	*	*	*k[b-e-a-]	*	*	*k[b-e-a-]	*	*	*k[b-e-a-]	*	*
*E-:	*	*	*E-:	*	*	*E-:	*	*	*E-:	*	*
*M3/4	*	*	*M3/4	*	*	*M3/4	*	*	*M3/4	*	*
=1	=1	=1	=1	=1	=1	=1	=1	=1	=1	=1	=1
!!LO:TX:t=P:problem=all\right
!	!	!	!LO:TX:a:t=andantino quasi \nAllegretto.	!	!	!LO:TX:a:t=Andantino quai Allegretto	!	!	!LO:TX:a:t=Andantino quasi Allegretto	!	!
!	!	!LO:DY:b:rj	!	!	!LO:DY:b:rj	!	!	!LO:DY:b:rj	!	!	!LO:DY:b:rj
4E-\	Ins-	p	4G\	Ins-	p	4B-\	Ins-	p	4e-/	Ins-	p
4E-\	-to-	.	4B-\	-to-	.	4e-\	-to-	.	4g/	-to-	.
4E-\	-rum	.	4B-\	-rum	.	4f\	-rum	.	4a-/	-rum	.
=2	=2	=2	=2	=2	=2	=2	=2	=2	=2	=2	=2
*	*	*	*	*	*	*	*	*	*	*	*
4.E-\	a-	.	4B-\	a-	.	4.g\	a-	.	4.b-\	a-	.
.	.	.	(8c\L	-ni-	.	.	.	.	.	.	.
8E-\	-ni-	.	8d\J)	.	.	8a-\	-ni-	.	8cc\	-ni-	.
4E-\	-me	.	4e-\	-me	.	4g\	-me	.	4b-\	-me	.
*	*	*	*	*	*	*	*	*	*	*	*
=3	=3	=3	=3	=3	=3	=3	=3	=3	=3	=3	=3
!	!	!LO:HP:a	!	!	!LO:HP:a	!	!	!LO:HP:a	!	!	!LO:HP:a
4E-\	in	>	4e-\	in	>	4g\	in	>	4b-\	in	>
8E-\	ma-	.	8e-\	ma-	.	8cc\	ma-	.	8ee-\	ma-	.
8E-\	-nu	.	8e-\	-nu	.	8b-\	-nu	.	8dd\	-nu	.
8E-\	De-	.	8e-\	De-	]	8a-\	De-	]	8cc\	De-	.
8E-\	-i	]	8B-\	-i	.	8g\	-i	.	8b-\	-i	]
=4	=4	=4	=4	=4	=4	=4	=4	=4	=4	=4	=4
*2\right	*	*	*2\right	*	*	*	*	*	*	*	*
(2D\	sunt	.	2.B-\	sunt	.	(4g\	sunt	.	(4b-\	sunt	.
.	.	.	.	.	.	4f\	.	.	4a-\	.	.
4E-\)	.	.	.	.	.	4e-\)	.	.	4g\)	.	.
*	*	*	*	*	*	*	*	*	*	*	*
!LO:LB:g=original	!	!	!	!	!	!	!	!	!	!	!
=5	=5	=5	=5	=5	=5	=5	=5	=5	=5	=5	=5
!	!	!LO:HP:a	!	!	!	!	!	!	!	!	!LO:HP:a
(4BB-/	Et	<	[4B-\	Et	.	(4d\	Et	.	(4f/	et	<
4D\)	.	.	4B-\]	.	.	4f\)	.	.	4b-/)	.	.
4E-\	non	[[	4c\	non	.	4g\	non	.	4b-/	non	[[
=6	=6	=6	=6	=6	=6	=6	=6	=6	=6	=6	=6
*	*	*	*	*	*	*2\right	*	*	*	*	*
!	!	!LO:HP:a	!	!	!	!	!	!	!	!	!LO:HP:a
4F\	tan-	>	2c\	tan-	.	2e-\	tan-	.	2an/	tan-	>
4F#X\	.	.	.	.	.	.	.	.	.	.	.
4G\	-get	]	4B-\	-get	.	4d\	-get	.	4b-/	-get	]
*	*	*	*	*	*	*	*	*	*	*	*
!	!	!	!LO:LB:g=original	!	!	!LO:LB:g=original	!	!	!	!	!
=7	=7	=7	=7	=7	=7	=7	=7	=7	=7	=7	=7
8E-\	il-	.	8c\	il-	.	8g\	il-	.	8cc\	il-	.
8D\	-los	.	8Bn\	-los	.	8g\	-los	.	8dd\	-los	.
8C\	tor-	.	8c\	tor-	.	8g\	tor-	.	8ee-\	tor-	.
8E-\	-men-	.	8c\	-men-	.	8g\	-men-	.	8cc\	-men-	.
!	!	!	!	!	!	!	!	!	!LO:LB:g=original	!	!
=-	=-	=-	=-	=-	=-	=-	=-	=-	=-	=-	=-
8F\	-tum	.	8d\	-tum	.	8f\	-tum	.	8b-\	-tum	.
8F\	ma-	.	8c\	ma-	.	8e-\	ma-	.	8an\	ma-	.
=8	=8	=8	=8	=8	=8	=8	=8	=8	=8	=8	=8
4.F\	-li-	.	4.c\	-li-	.	4.e-\	-li-	.	4.an\	-li-	.
8F\	-ti-	.	8An\	-ci-	.	8e-\	-ti-	.	8cc\	-ci-	.
4BB-/	-e	.	8B-\	-e	.	8d\	-e	.	8b-\	-e	.
.	.	.	8r	.	.	8r	.	.	8r	.	.
=9	=9	=9	=9	=9	=9	=9	=9	=9	=9	=9	=9
!	!	!LO:DY:b:rj	!	!	!LO:DY:b:rj	!	!	!LO:DY:a:rj	!	!	!LO:DY:a:rj
4D\	et	f	4B-\	et	f	4a-\	et	f	4ff\	et	f
4r	.	.	4r	.	.	4r	.	.	4r	.	.
!	!	!	!	!	!LO:DY:b:rj	!	!	!LO:DY:a:rj	!	!	!LO:DY:a:rj
4D\	non	.	4B-\	non	p	4f\	non	p	4a-/	non	p
=10	=10	=10	=10	=10	=10	=10	=10	=10	=10	=10	=10
!	!	!LO:DY:b:rj	!	!	!	!	!	!	!	!	!
4E-\	tan-	p	4B-\	tan-	.	4f\	tan-	.	4a-/	tan-	.
4E-\	-get	.	4B-\	-get	.	4e-\	-get	.	4g/	-get	.
4r	.	.	4r	.	.	4r	.	.	4r	.	.
!LO:LB:g=original	!	!	!	!	!	!	!	!	!	!	!
=11	=11	=11	=11	=11	=11	=11	=11	=11	=11	=11	=11
!	!	!LO:DY:b:rj	!	!	!LO:DY:b:rj	!	!	!LO:DY:a:rj	!	!	!LO:DY:a:rj
4BBn/	et	f	4G/	et	f	4f\	et	f	4dd\	et	f
4r	.	.	4r	.	.	4r	.	.	4r	.	.
!	!	!	!	!	!LO:DY:b:rj	!	!	!LO:DY:a:rj	!	!	!LO:DY:a:rj
4BB/	non	.	4G/	non	p	4d\	non	p	4f/	non	p
=12	=12	=12	=12	=12	=12	=12	=12	=12	=12	=12	=12
!	!	!LO:DY:b:rj	!	!	!	!	!	!	!	!	!
4C/	tan-	p	4G/	tan-	.	4d\	tan-	.	4f/	tan-	.
4C/	-get	.	4G/	-get	.	4c\	-get	.	4e-/	-get	.
4r	.	.	4r	.	.	4r	.	.	4r	.	.
!	!	!	!LO:LB:g=original	!	!	!LO:LB:g=original	!	!	!	!	!
=13	=13	=13	=13	=13	=13	=13	=13	=13	=13	=13	=13
!	!	!LO:HP:b	!	!	!LO:HP:a	!	!	!LO:HP:a	!	!	!LO:HP:a
4A-\	il-	<	4c\	il-	<	4e-\	il-	<	4cc\	il	<
4A-\	-los	.	4c\	-los	.	4en\	-los	.	4cc\	los	.
4A-\	tor-	[	4c\	tor-	[[	4f\	tor-	[[	4cc\	tor-	[
=14	=14	=14	=14	=14	=14	=14	=14	=14	=14	=14	=14
!	!	!LO:HP:b	!	!	!LO:HP:a	!	!	!LO:HP:a	!	!	!LO:HP:a
4An\	-men-	>	4c\	-men-	>	4f#X\	-men-	>	4ee-\	-men-	>
4A\	-tum	.	4d\	-tum	.	4f#\	-tum	]	4dd\	-tum	.
4A\	ma-	]	4e-\	ma-	]	4f#\	ma-	.	4cc\	ma-	]
!	!	!	!	!	!	!	!	!	!LO:LB:g=original	!	!
=15	=15	=15	=15	=15	=15	=15	=15	=15	=15	=15	=15
*	*	*	*	*	*	*	*	*	*	*	*
!	!	!LO:DY:b:rj	!	!	!LO:DY:b:rj	!	!	!	!	!	!LO:DY:b:rj
2B-\	-li-	p	2B-\	-li-	p	(4g\	-li-	.	(4b-\	-li-	p
.	.	.	.	.	.	4e-\)	.	.	4g\)	.	.
4BB-/	-ti-	.	4A-\	-ci-	.	4d\	-ci-	.	4f/	-ci-	.
*	*	*	*	*	*	*	*	*	*	*	*
=16	=16	=16	=16	=16	=16	=16	=16	=16	=16	=16	=16
*	*	*	*	*	*	*	*	*	*	*	*
!	!	!	!	!	!LO:HP:a	!	!	!	!	!	!
4E-\	-e	.	4G\	-e	<	4e-\	-e	.	4e-/	-e	.
!	!	!LO:HP:a	!	!	!	!	!	!	!	!	!
8E-\L	vi-	<	8G\L	vi-	.	4r	.	.	4r	.	.
8F\J	.	.	8A-\J	.	.	.	.	.	.	.	.
8G\	-si	.	8B-\	-si	[	4r	.	.	4r	.	.
8A-\	sunt	[	8c\	sunt	.	.	.	.	.	.	.
*	*	*	*	*	*	*	*	*	*	*	*
!LO:LB:g=original	!	!	!	!	!	!	!	!	!	!	!
=17	=17	=17	=17	=17	=17	=17	=17	=17	=17	=17	=17
!	!	!LO:DY:b:rj	!	!	!LO:DY:b:rj	!	!	!LO:DY:b:rj	!	!	!LO:DY:a:rj
4B-\	o-	f	4d-X\	o-	f	4g\	vi-	f	4ee-\	vi-	f
4G\	-cu-	.	4e-\	-cu-	.	(8b-\L	-si	.	(8dd-X\L	-si	.
.	.	.	.	.	.	8an\J)	.	.	8cc\J)	.	.
4E-\	-lis	.	4e-\	-lis	.	(8b-\L	sunt	.	(8dd-\L	sunt	.
.	.	.	.	.	.	8g\J)	.	.	8ee-\J)	.	.
=18	=18	=18	=18	=18	=18	=18	=18	=18	=18	=18	=18
4A-\	in	.	4c\	in	.	8.a-\	o-	.	8.cc/	o-	.
.	.	.	.	.	.	16e-\	-cu-	.	16a-/	-cu-	.
(8C\L	si-	.	(8A-\L	si-	.	4e-\	-lis	.	4a-/	-lis	.
8E-\J)	.	.	8B-\J)	.	.	.	.	.	.	.	.
8E-\	-pi-	.	8B-\	-pi-	.	4r	.	.	4r	.	.
8A-\	-en-	.	8c\	-en-	.	.	.	.	.	.	.
!	!	!	!	!	!	!LO:LB:g=original	!	!	!	!	!
=19	=19	=19	=19	=19	=19	=19	=19	=19	=19	=19	=19
!	!	!	!	!	!	!	!	!LO:DY:b:rj	!	!	!LO:DY:b:rj
2En\	-ti-	.	2c\	-ci-	.	4g\	in	f	4cc\	in	f
.	.	.	.	.	.	8g\	si-	.	8b-/	si-	.
.	.	.	.	.	.	16f#X\	-pi-	.	16an/	-pi-	.
.	.	.	.	.	.	16f#\	-en-	.	16a/	-en-	.
4E\	-um	.	4c\	-um	.	8g\	-ti-	.	8b-/	-ti-	.
.	.	.	.	.	.	8a-X\	-um	.	8cc/	-um	.
!	!	!	!LO:LB:g=original	!	!	!	!	!	!	!	!
=20	=20	=20	=20	=20	=20	=20	=20	=20	=20	=20	=20
4F\	mo-	.	4c\	mo-	.	4g\	mo-	.	4b-/	mo-	.
4F\	-ri	.	4c\	-ri	.	4f\	-ri	.	4a-/	-ri	.
4r	.	.	4r	.	.	4r	.	.	4r	.	.
!	!	!	!	!	!	!	!	!	!LO:LB:g=original	!	!
=21	=21	=21	=21	=21	=21	=21	=21	=21	=21	=21	=21
*	*	*	*	*	*	*	*	*	*2\right	*	*
!	!	!LO:DY:b:rj	!	!	!LO:DY:b:rj	!	!	!LO:DY:b:rj	!	!	!LO:DY:b:rj
2D-X\	il-	f	2A-\	il-	f	2f\	il-	f	2ff\	il-	f
4D-\	-li	.	4A-\	-li	.	4f\	-li	.	4ff\	-li	.
=22	=22	=22	=22	=22	=22	=22	=22	=22	=22	=22	=22
*	*	*	*	*	*	*	*	*	*	*	*
4D-X\	au-	.	4A-\	au-	.	4f\	au-	.	4ff\	au-	.
4D-\	-tem	.	8An\L	-tem	.	4f\	-tem	.	(8ee-\L	-tem	.
.	.	.	8B-\J	.	.	.	.	.	8dd-X\J)	.	.
8D-\	sunt	.	8c\	sunt	.	8f\	sunt	.	8cc\	sunt	.
8D-\	in	.	8d-X\	in	.	8f\	in	.	8b-\	in	.
*	*	*	*	*	*	*	*	*	*	*	*
=23	=23	=23	=23	=23	=23	=23	=23	=23	=23	=23	=23
2.E-\	pa-	.	(2c\	pa-	.	(2e-\	pa-	.	(4a-/	pa-	.
.	.	.	.	.	.	.	.	.	16b-/LL	.	.
.	.	.	.	.	.	.	.	.	16a-/	.	.
.	.	.	.	.	.	.	.	.	16g/	.	.
.	.	.	.	.	.	.	.	.	16a-/JJ	.	.
.	.	.	.	.	.	.	.	.	.	.	.
.	.	.	.	.	.	.	.	.	.	.	.
.	.	.	.	.	.	.	.	.	.	.	.
.	.	.	.	.	.	.	.	.	.	.	.
.	.	.	4d-X\)	.	.	4g\)	.	.	8cc/L	.	.
.	.	.	.	.	.	.	.	.	8b-/J)	.	.
*	*	*	*	*	*	*	*	*	*	*	*
!LO:LB:g=original	!	!	!	!	!	!	!	!	!	!	!
=24	=24	=24	=24	=24	=24	=24	=24	=24	=24	=24	=24
4A-\	-ce	.	4c\	-ce	.	4e-\	-ce	.	4a-/	-ce	.
4r	.	.	4r	.	.	4r	.	.	4r	.	.
4r	.	.	4r	.	.	4r	.	.	4r	.	.
=25	=25	=25	=25	=25	=25	=25	=25	=25	=25	=25	=25
*	*	*	*	*	*	*	*	*	*	*	*
!	!	!LO:DY:b:rj	!	!	!LO:DY:b:rj	!	!	!LO:DY:b:rj	!	!	!LO:DY:b:rj
2.A-\	pa-	p	2.c\	pa-	p	2.e-\	pa-	p	2.f#X/	pa-	p
*	*	*	*	*	*	*	*	*	*	*	*
!	!	!	!	!	!	!LO:LB:g=original	!	!	!	!	!
=26	=26	=26	=26	=26	=26	=26	=26	=26	=26	=26	=26
4G\	-ce	.	4c\	-ce	.	4e-\	-ce	.	4g/	-ce	.
4r	.	.	4r	.	.	4r	.	.	4r	.	.
4G\	in	.	4c\	in	.	4e-\	in	.	4g/	in	.
=27	=27	=27	=27	=27	=27	=27	=27	=27	=27	=27	=27
!	!	!LO:HP:a	!	!	!LO:HP:a	!	!	!	!	!	!LO:HP:b
2.G-X\	pa-	>]	2.c\	pa-	>]	2.e-\	pa-	.	2.a-X/	pa-	>]
!	!	!	!LO:LB:g=original	!	!	!	!	!	!	!	!
=28	=28	=28	=28	=28	=28	=28	=28	=28	=28	=28	=28
4F\	-ce	.	4c\	-ce	.	4e-\	-ce	.	4an/	-ce	.
4r	.	.	4r	.	.	4r	.	.	4r	.	.
4F\	in	.	4c\	in	.	4e-\	in	.	4a/	in	.
!	!	!	!	!	!	!	!	!	!LO:LB:g=original	!	!
=29	=29	=29	=29	=29	=29	=29	=29	=29	=29	=29	=29
*	*	*	*	*	*	*	*	*	*	*	*
[2.BB-/	pa-	.	(4B-\	pa-	.	(2d\	pa-	.	(4b-\	pa-	.
.	.	.	4A-\)	.	.	.	.	.	4cc\	.	.
.	.	.	4G\	.	.	4e-\	.	.	4b-\	.	.
=30	=30	=30	=30	=30	=30	=30	=30	=30	=30	=30	=30
2.BB-/_	.	.	4En/	.	.	2d-X\	.	.	4g/	.	.
.	.	.	4G/	.	.	.	.	.	4b-/	.	.
.	.	.	4F/	.	.	4c\	.	.	4a-/	.	.
=31	=31	=31	=31	=31	=31	=31	=31	=31	=31	=31	=31
*	*	*	*	*	*	*	*	*	*	*	*
2.BB-/_	.	.	2.A-\	.	.	2.dn\)	.	.	4f/	.	.
.	.	.	.	.	.	.	.	.	4g/	.	.
.	.	.	.	.	.	.	.	.	4f/)	.	.
*	*	*	*	*	*	*	*	*	*	*	*
=32	=32	=32	=32	=32	=32	=32	=32	=32	=32	=32	=32
2.BB-/]	-ce	.	(4F/	.	.	(4d\	.	.	2b-\	-ce	.
.	.	.	4E-/)	.	.	4c\)	.	.	.	.	.
.	.	.	4D/	-ce	.	4B-\	-ce	.	4r	.	.
*	*	*	*	*	*	*	*	*	*	*	*
*	*	*	*	*	*	*	*	*	*	*	*
=33	=33	=33	=33	=33	=33	=33	=33	=33	=33	=33	=33
!	!	!LO:DY:b:rj	!	!	!LO:DY:a	!	!	!	!	!	!LO:DY:b:rj
4E-\	Ins-	p	4G\	In-	p	4B-\	Ins-	.	4e-/	In-	p
4E-\	-to-	.	4B-\	-sto-	.	4e-\	-to-	.	4g/	-sto-	.
4E-\	-rum	.	4B-\	-rum	.	4f\	-rum	.	4a-/	-rum	.
!LO:LB:g=original	!	!	!	!	!	!LO:LB:g=original	!	!	!	!	!
=34	=34	=34	=34	=34	=34	=34	=34	=34	=34	=34	=34
*	*	*	*	*	*	*	*	*	*	*	*
4.E-\	a-	.	4B-\	a-	.	4.g\	a-	.	4.b-\	a-	.
.	.	.	8c\L	-ni-	.	.	.	.	.	.	.
8E-\	-ni-	.	8d\J	.	.	8a-\	-ni-	.	8cc\	-ni-	.
4E-\	-me	.	4e-\	-me	.	4g\	-me	.	4b-\	-me	.
*	*	*	*	*	*	*	*	*	*	*	*
=35	=35	=35	=35	=35	=35	=35	=35	=35	=35	=35	=35
4E-\	in	.	4e-\	in	.	4g\	in	.	4b-\	in	.
!	!	!	!	!	!	!	!	!	!	!	!LO:HP:b
8E-\	ma-	.	8e-\	ma-	.	8cc\	ma-	.	8ee-\	ma-	>
8E-\	-nu	.	8e-\	-nu	.	8b-\	-nu	.	8dd\	-nu	.
8E-\	De-	.	8e-\	De-	.	8a-\	De-	.	8cc\	De-	.
8E-\	-i	.	8e-\	-i	.	8g\	-i	.	8b-\	-i	]
!	!	!	!LO:LB:g=original	!	!	!	!	!	!LO:LB:g=original	!	!
=36	=36	=36	=36	=36	=36	=36	=36	=36	=36	=36	=36
*	*	*	*	*	*	*	*	*	*	*	*
2D\	sunt	.	2.B-\	sunt	.	(4g\	sunt	.	(4b-/	sunt	.
.	.	.	.	.	.	4f\	.	.	4a-/	.	.
4E-\	.	.	.	.	.	4e-\)	.	.	4g/)	.	.
*	*	*	*	*	*	*	*	*	*	*	*
=37	=37	=37	=37	=37	=37	=37	=37	=37	=37	=37	=37
(4AA-/	et	.	(4A-\	et	.	(4c\	et	.	(4e-/	et	.
4A-\)	.	.	4c\)	.	.	4e-\)	.	.	4cc\	.	.
4G\	non	.	4c\	non	.	4en\	non	.	4b-\)	non	.
=38	=38	=38	=38	=38	=38	=38	=38	=38	=38	=38	=38
4En\	tan-	.	2c\	tan-	.	(4g\	tan-	.	(4b-\	tan-	.
4F\	.	.	.	.	.	4f\)	.	.	4a-\)	.	.
4AA-/	-get	.	4c-X\	-get	.	4e-\	-get	.	4f/	-get	.
=39	=39	=39	=39	=39	=39	=39	=39	=39	=39	=39	=39
*	*	*	*	*	*	*	*	*	*	*	*
2.BB-/	il-	.	(2B-\	il-	.	(2e-\	il-	.	2g/	il-	.
.	.	.	4A-\)	.	.	4d\)	.	.	4f/	.	.
*	*	*	*	*	*	*	*	*	*	*	*
=40	=40	=40	=40	=40	=40	=40	=40	=40	=40	=40	=40
*	*	*	*	*	*	*	*	*	*	*	*
4E-\	-los	.	4G\	-los	.	4e-\	-los	.	4e-/	-los	.
4r	.	.	4r	.	.	4r	.	.	4r	.	.
4r	.	.	4r	.	.	4e-\	tor-	.	4e-/	tor-	.
*	*	*	*	*	*	*	*	*	*	*	*
!LO:LB:g=original	!	!	!	!	!	!LO:LB:g=original	!	!	!	!	!
=41	=41	=41	=41	=41	=41	=41	=41	=41	=41	=41	=41
!	!	!	!	!	!LO:HP:a	!	!	!	!	!	!
2.E-^\	men-	.	2.c\	men-	>]	2.e-\	-men-	.	2.a-/	-men-	.
=42	=42	=42	=42	=42	=42	=42	=42	=42	=42	=42	=42
4E-\	-tum	.	4B-\	-tum	.	4e-\	-tum	.	4g/	-tum	.
4r	.	.	4r	.	.	4r	.	.	4r	.	.
4E-\	ma-	.	4G\	ma-	.	4B-\	ma-	.	4e-/	ma-	.
=43	=43	=43	=43	=43	=43	=43	=43	=43	=43	=43	=43
!	!	!	!	!	!LO:HP:a	!	!	!	!	!	!
2BB-^>/	-li-	.	2A-\	-li-	>]	2d\	-li-	.	2f/	-li-	.
4BB-/	-ti-	.	4A-\	-ci-	.	4d\	-ti-	.	4f/	-ti-	.
!	!	!	!LO:LB:g=original	!	!	!	!	!	!LO:LB:g=original	!	!
=44	=44	=44	=44	=44	=44	=44	=44	=44	=44	=44	=44
*	*	*	*	*	*	*	*	*	*	*	*
4E-\	-e	.	4G\	-e	.	4e-\	-e	.	4e-/	-e	.
4r	.	.	4r	.	.	4r	.	.	4r	.	.
4r	.	.	4r	.	.	4e-\	tor-	.	4e-/	tor-	.
*	*	*	*	*	*	*	*	*	*	*	*
=45	=45	=45	=45	=45	=45	=45	=45	=45	=45	=45	=45
!	!	!	!	!	!	!	!	!	!	!	!LO:HP:b
2.E-^\	men-	.	2.c^\	men-	.	2.e-\	-men-	.	2.a-/	-men-	>]
=46	=46	=46	=46	=46	=46	=46	=46	=46	=46	=46	=46
*	*	*	*	*	*	*	*	*	*	*	*
4E-\	-tum	.	4B-\	-tum	.	4e-\	-tum	.	4g/	-tum	.
4r	.	.	4r	.	.	4r	.	.	4r	.	.
4r	.	.	4r	.	.	4e-\	ma-	.	4e-/	ma-	.
*	*	*	*	*	*	*	*	*	*	*	*
=47	=47	=47	=47	=47	=47	=47	=47	=47	=47	=47	=47
!	!	!	!	!	!	!	!	!	!	!	!LO:HP:a
4BB-/	ma-	.	4A-\	ma-	.	2d\	-li-	.	2f/	-li-	>
4BB-/	-li-	.	4A-\	-li-	.	.	.	.	.	.	.
4BB-/	-ci-	.	4A-\	-ti-	.	4d\	-ci-	.	4f/	-ci-	]
=48	=48	=48	=48	=48	=48	=48	=48	=48	=48	=48	=48
4E-\	-e	.	4G/	-e	.	4B-/	-e	.	4e-/	-e	.
4r	.	.	4r	.	.	4r	.	.	4r	.	.
4E-\	in	.	4G/	in	.	4B-/	in	.	4e-/	in	.
=49	=49	=49	=49	=49	=49	=49	=49	=49	=49	=49	=49
*	*	*	*	*	*	*	*	*	*	*	*
!	!	!	!	!	!LO:HP:a	!	!	!	!	!	!
2.A-\	pa-	.	2.A-/	pa-	<	2.c\	pa-	.	[2.e-/	pa-	.
*	*	*	*	*	*	*	*	*	*	*	*
!LO:LB:g=original	!	!	!	!	!	!LO:LB:g=original	!	!	!	!	!
=50	=50	=50	=50	=50	=50	=50	=50	=50	=50	=50	=50
!	!	!LO:HP:a	!	!	!	!	!	!LO:HP:a	!	!	!
2.E-\	.	<[	2.G/	.	.	2.B-/	.	<	2.e-/_	.	.
=51	=51	=51	=51	=51	=51	=51	=51	=51	=51	=51	=51
*	*	*	*	*	*	*	*	*	*	*	*
!	!	!LO:HP:a	!	!	!	!	!	!	!	!	!
2BB-/	.	>	2.G/	.	[	2.B-/	.	[[	2.e-/_	.	.
4GG/	.	.	.	.	.	.	.	.	.	.	.
=52	=52	=52	=52	=52	=52	=52	=52	=52	=52	=52	=52
!	!	!	!	!	!LO:HP:a	!	!	!LO:HP:a	!	!	!
[2.EE-/	-ce	]]	2.G/	.	>	2.B-/	.	>]	2.e-/]	.	.
=53	=53	=53	=53	=53	=53	=53	=53	=53	=53	=53	=53
4EE-/]	.	.	4G/	-ce	]	4B-/	-ce	.	4e-/	-ce	.
4r	.	.	4r	.	.	4r	.	.	4r	.	.
4r	.	.	4r	.	.	4r	.	.	4r	.	.
*	*	*	*	*	*	*	*	*	*	*	*
==	==	==	==	==	==	==	==	==	==	==	==
*-	*-	*-	*-	*-	*-	*-	*-	*-	*-	*-	*-
!!!system-decoration: [(s1,s2,s3,s4)]
!!!RDF**kern: < = below
!!!RDF**kern: > = above
!!!ENC: Andrzej Gręziak
!!!END: 2021-10-25
!!!EED: Marta Chmielewska
!!!EEV: 2024-04-30
